!!!!SEGMENT: pl-kk--kk-i-11--001-002_anonim-missa-o-admirabile-comercium-et-in-terra.krn
!!!id: 16xx:1233
!!!COM: Anonim
!!!OTL: Missa o Admirabile Comercium – Et in terra
!!!PDT:
!!!SMS-siglum: PL-Kk
!!!SMS-shelfmark: Kk.I.11
!!!NIFC-rismID: 1001154125
!!!URL-scan: http://repozytorium.nifc.pl/skany/pl-kk-nut--i-11
!!!ONB-nifc: UWAGA: części Mszy: 1. Kyrie, 2. Et in terra, 3. Patrem, 4. Sanctus, 5. Benedictus, 6. Agnus Dei. S (skan 0004-0008), T (0013-0016).
!!!SMS-variant:
!!!SMS-altvar:
**kern	**text	**kern	**text
*part2	*part2	*part1	*part1
*staff2	*staff2	*staff1	*staff1
*I"[Tenore]	*	*I"[Canto]	*
*I'T	*	*I'S	*
*clefC4	*	*clefG2	*
*k[]	*	*k[]	*
*M2/1	*	*M2/1	*
*all\right	*	*all\right	*
*met(C|)	*	*met(C|)	*
=1-	=1-	=1-	=1-
00r	.	0dd	ET
=2-	=2-	=2-	=2-
!	!	!LO:TX:t=P:problem:kreska pseudotaktowa	!
.	.	0dd	in
=3-	=3-	=3-	=3-
00r	.	1dd	ter-
!	!	!LO:TX:t=P:problem:kreska pseudotaktowa	!
.	.	1dd	-ra
=4-	=4-	=4-	=4-
.	.	1.ee	pax
*	*	*2\right	*
!	!	!LO:TX:t=P:problem:kreska pseudotaktowa	!
.	.	2dd\	ho-
=5-	=5-	=5-	=5-
!LO:TX:t=P:problem:kreska pseudotaktowa	!	!	!
0r	.	2.dd\	-mi-
.	.	4cc\	-ni-
.	.	2b/	-bus
!	!	!LO:TX:t=P:problem:kreska pseudotaktowa	!
.	.	2cc\	.
=6-	=6-	=6-	=6-
2A/	Bo-	1dd	[bo-
4F/	-nae	.	.
!LO:TX:t=P:problem:kreska pseudotaktowa	!	!	!
4G/	.	.	.
!	!	!LO:TX:t=P:problem:kreska pseudotaktowa	!
4A/	.	1dd	-nae]
4G/	.	.	.
4A\	.	.	.
8d\L	Vo-	.	.
8c\J	.	.	.
=7-	=7-	=7-	=7-
4B\	.	2dd\	bo-
4c\	.	.	.
4d\	.	2dd\	-nae
!LO:TX:t=P:problem:kreska pseudotaktowa	!	!	!
4c\	.	.	.
4B\	.	1dd	Vo-
4A\	.	.	.
1G/	.	.	.
=8-	=8-	=8-	=8-
!	!	!LO:TX:t=P:problem:kreska pseudotaktowa	!
.	.	1ee	-lun-
*2\right	*	*	*
!LO:TX:t=P:problem:kreska pseudotaktowa	!	!	!
2c\	-lun-	.	.
!LO:TX:t=P:problem:kreska pseudotaktowa	!	!	!
1A	-ta-	1cc	.
=9-	=9-	=9-	=9-
2B,<\	-tis.	2b/	-ta-
!	!	!LO:TX:t=P:problem:kreska pseudotaktowa	!
!	!	!LO:SIC:v:t=custos cc	!
2G/	lau-	2b/	-tis
!	!	!LO:LB:g=original	!
1G	-da-	1cc	be-
=10-	=10-	=10-	=10-
2G/	-mus	2dd\	-ne-
1c	te	4cc\	-di-
!	!	!LO:TX:t=P:problem:kreska pseudotaktowa	!
.	.	4dd\	-ci-
.	.	4ee\	-m(us)
.	.	4ff\	.
!LO:TX:t=P:problem:kreska pseudotaktowa	!	!	!
2d\	.	2gg\	te
=11-	=11-	=11-	=11-
2e\	.	00r	.
!LO:TX:t=P:problem:kreska pseudotaktowa	!	!	!
2G/	be-	.	.
4A\	-ne-	.	.
4B\	.	.	.
4c\	.	.	.
4d\	.	.	.
=12-	=12-	=12-	=12-
2e\	.	.	.
!LO:TX:t=P:problem:kreska pseudotaktowa	!	!	!
2c\	-di-	.	.
!LO:LB:g=original	!	!	!
2c\	-ci-	.	.
!LO:TX:t=P:problem:kreska pseudotaktowa	!	!	!
2G/	.	.	.
=13-	=13-	=13-	=13-
!	!	!LO:TX:t=P:problem:kreska pseudotaktowa	!
2d\	.	0r	.
!LO:TX:t=P:problem:kreska pseudotaktowa	!	!	!
2G/	.	.	.
2B\	-mus	.	.
2c\	.	.	.
=14-	=14-	=14-	=14-
!LO:TX:t=P:problem:kreska pseudotaktowa	!	!	!
1d	te	2r	.
.	.	1dd	a-
00r	.	.	.
!	!	!LO:TX:t=P:problem:kreska pseudotaktowa	!
.	.	2dd\	-do-
=15-	=15-	=15-	=15-
.	.	1ee	-ra-
.	.	2dd\	-mus
.	.	1ee\	te
=16-	=16-	=16-	=16-
.	.	.	.
!	!	!LO:TX:t=P:problem:kreska pseudotaktowa	!
.	.	2dd\	glo-
!LO:TX:t=P:problem:kreska pseudotaktowa	!	!	!
0r	.	2cc\	-ri-
.	.	2b/	-fi-
=17-	=17-	=17-	=17-
.	.	2a/	-ca-
!	!	!LO:TX:t=P:problem:kreska pseudotaktowa	!
.	.	2a/	-m(us)
2r	.	2b/	[te]
1c\	A-	1ee\	a-
=18-	=18-	=18-	=18-
.	.	.	.
!LO:TX:t=P:problem:kreska pseudotaktowa	!	!LO:TX:t=P:problem:kreska pseudotaktowa	!
2G/	-do-	2ee\	-do-
1A	-ra-	1ff	-ra-
=19-	=19-	=19-	=19-
!	!	!LO:SIC:v:t=custos ff	!
2c\	-mus	2ee\	-m(us)
!	!	!LO:LB:g=original	!
1A	te	1ff	te
!LO:TX:t=P:problem:kreska pseudotaktowa	!	!LO:TX:t=P:problem:kreska pseudotaktowa	!
2c\	glo-	2ee\	glo-
=20-	=20-	=20-	=20-
2G/	-ri-	2dd\	-ri-
2c\	-fi-	2cc\	-fi-
2A/	-ca-	2cc\	-ca-
!LO:TX:t=P:problem:kreska pseudotaktowa	!	!	!
2G/	-m(us)	2b/	-m(us)
=21-	=21-	=21-	=21-
!	!	!LO:TX:t=P:problem:kreska pseudotaktowa	!
1G	te	1cc	te
2r	.	2r	.
1c\	Gra-	1ee\	gra-
=22-	=22-	=22-	=22-
.	.	.	.
!LO:TX:t=P:problem:kreska pseudotaktowa	!	!LO:TX:t=P:problem:kreska pseudotaktowa	!
2G/	-(ti)-	2ee\	-ti-
2B\	-as	1dd	-as
2.B\	a-	.	.
=23-	=23-	=23-	=23-
.	.	1ee	a-
4c\	-gi-	.	.
!LO:TX:t=P:problem:kreska pseudotaktowa	!	!	!
2c\	-m(us)	.	.
2c\	ti-	2cc\	-gi-
!	!	!LO:TX:t=P:problem:kreska pseudotaktowa	!
2d\	.	2dd\	-mus
=24-	=24-	=24-	=24-
1G	.	1ee	ti-
1G	-bi	2dd\	-bi
.	.	1dd\	pro-
=25-	=25-	=25-	=25-
!LO:PB:g=original	!	!	!
00r	.	.	.
!	!	!LO:TX:t=P:problem:kreska pseudotaktowa	!
.	.	2dd\	-p(ter)
.	.	2dd\	ma-
!	!	!LO:TX:t=P:problem:kreska pseudotaktowa	!
.	.	2cc\	-gna(m)
=26-	=26-	=26-	=26-
.	.	2dd\	glo-
!	!	!LO:TX:t=P:problem:kreska pseudotaktowa	!
!	!	!LO:SIC:v:t=custos ee	!
.	.	2dd\	-ri-
!	!	!LO:LB:g=original	!
.	.	2ee\	-am
.	.	2.dd\	tu-
=27-	=27-	=27-	=27-
0r	.	.	.
.	.	4b/	.
!	!	!LO:TX:t=P:problem:kreska pseudotaktowa:między nutą i kropką	!
.	.	2.ee\	.
.	.	.	.
.	.	4dd\	.
.	.	1dd\	.
=28-	=28-	=28-	=28-
!LO:TX:t=P:problem:kreska pseudotaktowa	!	!	!
1r	.	.	.
!	!	!LO:TX:t=P:problem:kreska pseudotaktowa	!
.	.	2cc\	.
2r	.	4dd\	.
.	.	4cc\	.
2.B\	Do-	4b/	.
.	.	4a/	.
=29-	=29-	=29-	=29-
!	!	!LO:TX:t=P:problem:kreska pseudotaktowa	!
.	.	1b	-am
4B\	-mi-	.	.
!LO:TX:t=P:problem:kreska pseudotaktowa	!	!	!
2B\	-ne	.	.
2c\	De-	0r	.
!LO:TX:t=P:problem:kreska pseudotaktowa	!	!	!
2c\	-us	.	.
=30-	=30-	=30-	=30-
2d\	Rex	.	.
!LO:TX:a:t=P:problem:♭ above	!	!	!
!LO:TX:t=P:problem:kreska pseudotaktowa	!	!	!
2B-X\	Coe-	.	.
1c	-le-	1r	.
=31-	=31-	=31-	=31-
2c\	-stis	2r	.
!LO:TX:t=P:problem:kreska pseudotaktowa	!	!	!
2r	.	1ee	De-
!LO:TX:a:t=4	!	!	!
00r	.	.	.
!	!	!LO:TX:t=P:problem:kreska pseudotaktowa	!
.	.	2ee\	-us
=32-	=32-	=32-	=32-
.	.	1dd	Pa-
.	.	2ee\	-ter
!	!	!LO:TX:t=P:problem:kreska pseudotaktowa	!
.	.	2cc\	om-
=33-	=33-	=33-	=33-
.	.	2dd\	-ni-
.	.	2ee\	-po-
!	!	!LO:TX:t=P:problem:kreska pseudotaktowa	!
2r	.	1dd	-tens
2.Bny\	Do-	.	.
=34-	=34-	=34-	=34-
!	!	!LO:SIC:v:t=custos b	!
.	.	00r	.
4B\	-mi-	.	.
!LO:TX:t=P:problem:kreska pseudotaktowa	!	!	!
2A\	-ne	.	.
2B\	Fi-	.	.
2G/	.	.	.
=35-	=35-	=35-	=35-
2c\	-li	.	.
!LO:TX:t=P:problem:kreska pseudotaktowa	!	!	!
2B\	U-	.	.
2A\	-ni-	.	.
2d\	-ge-	.	.
=36-	=36-	=36-	=36-
!	!	!LO:LB:g=original	!
2d\	.	2r	.
2c\	-ni-	2.b/	Do-
!LO:TX:t=P:problem:kreska pseudotaktowa	!	!	!
1d	-te	.	.
.	.	4b/	-mi-
!	!	!LO:TX:t=P:problem:kreska pseudotaktowa	!
.	.	2a/	-ne
=37-	=37-	=37-	=37-
00r	.	2b/	fi-
!	!	!LO:TX:t=P:problem:kreska pseudotaktowa	!
.	.	2cc\	-li
.	.	2dd\	V-
.	.	1ee\	-ni-
=38-	=38-	=38-	=38-
.	.	.	.
.	.	1dd	-g-
!	!	!LO:TX:t=P:problem:kreska pseudotaktowa	!
.	.	2cc\	-ni-
=39-	=39-	=39-	=39-
1G	Je-	1dd	-te
!LO:TX:t=P:problem:kreska pseudotaktowa	!	!	!
1G	-su	1.gg	Je-
=40-	=40-	=40-	=40-
!LO:LB:g=original	!	!	!
1B	Chri-	.	.
!	!	!LO:TX:t=P:problem:kreska pseudotaktowa	!
.	.	2ff\	.
!LO:TX:t=P:problem:kreska pseudotaktowa	!	!	!
1c	.	1ee	.
=41-	=41-	=41-	=41-
2B\	.	2dd\	-ſu
4A/	.	4cc\	.
!	!	!LO:TX:t=P:problem:kreska pseudotaktowa	!
4G/	.	4b/	.
!LO:TX:t=P:problem:kreska pseudotaktowa	!	!	!
1c	.	2.cc\	Chri-
!	!	!LO:TX:t=P:problem:kreska pseudotaktowa	!
.	.	4dd\	.
=42-	=42-	=42-	=42-
1.c	.	4ee\	.
.	.	4ff\	.
!	!	!LO:SIC:v:t=custos d	!
.	.	1ee	.
!LO:TX:t=P:problem:kreska pseudotaktowa	!	!LO:PB:g=original	!
2B\	.	4dd\	.
!	!	!LO:TX:t=P:problem:kreska pseudotaktowa	!
.	.	4cc\	.
=43-	=43-	=43-	=43-
2c,<\	ste,	2b/	.
1e	Do-	1cc	.
!	!	!LO:TX:t=P:problem:kreska pseudotaktowa	!
4d\	.	2b/	.
!LO:TX:t=P:problem:kreska pseudotaktowa	!	!	!
4c\	.	.	.
=44-	=44-	=44-	=44-
!	!	!LO:TX:t=P:problem:kreska pseudotaktowa	!
2d\	-mi-	1cc	-ſte
2e\	-ne	.	.
1c	De-	2r	.
.	.	1dd\	Do-
=45-	=45-	=45-	=45-
!LO:TX:t=P:problem:kreska pseudotaktowa	!	!	!
1c	-us	.	.
!	!	!LO:TX:t=P:problem:kreska pseudotaktowa	!
.	.	2cc\	-mi-
!LO:TX:t=P:problem:kreska pseudotaktowa	!	!	!
1G	.	1cc	-ne
=46-	=46-	=46-	=46-
!	!	!LO:TX:t=P:problem:kreska pseudotaktowa	!
00r	.	1cc	De-
.	.	1b	-us
=47-	=47-	=47-	=47-
.	.	1.dd	A-
!	!	!LO:TX:t=P:problem:kreska pseudotaktowa	!
.	.	2dd\	-gnus
=48-	=48-	=48-	=48-
!LO:TX:t=P:problem:kreska pseudotaktowa	!	!	!
0r	.	1.ee	De-
.	.	4dd\	.
!	!	!LO:TX:t=P:problem:kreska pseudotaktowa	!
.	.	4cc\	.
=49-	=49-	=49-	=49-
2r	.	4dd\	.
.	.	4cc\	.
1f	Fi-	4cc\	.
.	.	8b/L	.
!	!	!LO:TX:t=P:problem:kreska pseudotaktowa	!
!	!	!LO:SIC:v:t=custos b	!
.	.	8a/J	.
!	!	!LO:LB:g=original	!
.	.	1b	.
4e\	.	.	.
!LO:TX:t=P:problem:kreska pseudotaktowa	!	!	!
4d\	.	.	.
=50-	=50-	=50-	=50-
!	!	!LO:TX:t=P:problem:kreska pseudotaktowa	!
2e\	.	1a	-i
!LO:TX:t=P:problem:kreska pseudotaktowa	!	!	!
2d\	-li-	.	.
2d,\	-us	0r	.
1d\	Fi-	.	.
=51-	=51-	=51-	=51-
.	.	.	.
!LO:TX:t=P:problem:kreska pseudotaktowa	!	!	!
2d\	-li-	.	.
1d	-us	0dd	fi-
=52-	=52-	=52-	=52-
!LO:LB:g=original	!	!	!
2c\	Fi-	.	.
1e	.	.	.
!	!	!LO:TX:t=P:problem:kreska pseudotaktowa	!
.	.	1dd	-li-
4d\	.	.	.
!LO:TX:t=P:problem:kreska pseudotaktowa	!	!	!
4c\	.	.	.
=53-	=53-	=53-	=53-
2B\	.	2.ee\	-us
2G/	-li-	.	.
.	.	4ff\	.
2.A\	-us	0gg	Pa-
!LO:TX:t=P:problem:kreska pseudotaktowa	!	!	!
(4B\	.	.	.
=54-	=54-	=54-	=54-
4c\)	Pa-	.	.
4d\	.	.	.
2.e\	.	.	.
.	.	2.ff\	.
4d\	.	.	.
!LO:TX:t=P:problem:kreska pseudotaktowa	!	!	!
2e\	.	.	.
!	!	!LO:TX:t=P:problem:kreska pseudotaktowa	!
.	.	4ee\	.
=55-	=55-	=55-	=55-
0A	.	4cc\	.
.	.	4dd\	.
.	.	2.ee\	.
.	.	4dd\	.
.	.	1dd\	.
=56-	=56-	=56-	=56-
00A	-tris	.	.
!	!	!LO:TX:a:t=P:problem:# above	!
.	.	4cc#X\	.
!	!	!LO:TX:t=P:problem:kreska pseudotaktowa	!
.	.	4b/	.
.	.	1cc#X	.
=57-	=57-	=57-	=57-
!	!	!LO:TX:t=P:problem:kreska pseudotaktowa	!
.	.	0dd	-tris
=58||	=58||	=58||	=58||
*M2/1	*	*M2/1	*
*met(C|)	*	*met(C|)	*
!	!	!LO:LB:g=original	!
0G	Qui	0dd	Qui
=59-	=59-	=59-	=59-
!LO:TX:t=P:problem:kreska pseudotaktowa	!	!LO:TX:t=P:problem:kreska pseudotaktowa	!
1G	tol-	1ee	tol-
2G/	-liſ	2dd\	-lis
!LO:TX:t=P:problem:kreska pseudotaktowa	!	!LO:TX:t=P:problem:kreska pseudotaktowa	!
2G/	pec-	2dd\	pec-
=60-	=60-	=60-	=60-
!LO:TX:a:t=a	!	!	!
2A/	-(ca)-	2dd\	-ca-
!LO:TX:t=P:problem:kreska pseudotaktowa	!	!	!
!LO:TX:a:t=c	!	!	!
2c\	-ta	2ee\	-ta
!	!	!LO:TX:t=P:problem:kreska pseudotaktowa	!
2F/	mun-	1ff	mu(n)-
!LO:TX:t=P:problem:kreska pseudotaktowa	!	!	!
2G/	.	.	.
=61-	=61-	=61-	=61-
2c\	-di	2ee\	-di
!LO:LB:g=original	!	!	!
1d	Mi-	1dd	mi-
!LO:TX:t=P:problem:kreska pseudotaktowa	!	!LO:TX:t=P:problem:kreska pseudotaktowa	!
2G/	-ſe-	2dd\	-ſe-
=62-	=62-	=62-	=62-
2G/	-re-	4ee\	-re-
.	.	4ff\	.
!LO:TX:t=P:problem:kreska pseudotaktowa	!	!	!
2c\	-re	4gg\	.
!	!	!LO:TX:t=P:problem:kreska pseudotaktowa	!
.	.	4ee\	.
2.A\	No-	2ff\	-re
.	.	2.ee\	no-
!LO:TX:t=P:problem:kreska pseudotaktowa	!	!	!
4B\	.	.	.
=63-	=63-	=63-	=63-
2A/	.	.	.
.	.	4dd\	.
4G/	.	1dd	.
4F/	.	.	.
2G/	.	.	.
!	!	!LO:TX:a:t=P:problem:♯ above	!
!	!	!LO:TX:t=P:problem:kreska pseudotaktowa	!
!LO:TX:t=P:problem:kreska pseudotaktowa	!	!LO:SIC:v:t=custos dd	!
2A/	.	2cc#X\	.
=64-	=64-	=64-	=64-
!	!	!LO:LB:g=original	!
1D,<	-bis	1.dd	-bis
!LO:TX:t=P:problem:kreska pseudotaktowa	!	!	!
1A	Qui	.	.
!	!	!LO:TX:t=P:problem:kreska pseudotaktowa	!
.	.	2dd\	qui
=65-	=65-	=65-	=65-
1G	tol-	1dd	tol-
!	!	!LO:TX:t=P:problem:kreska pseudotaktowa	!
2A/	-liſ	1dd	-lis
!LO:TX:t=P:problem:kreska pseudotaktowa	!	!	!
2F/	pec-	.	.
=66-	=66-	=66-	=66-
2G/	-(ca)-	0r	.
!LO:TX:t=P:problem:kreska pseudotaktowa	!	!	!
2G/	-ta	.	.
1A	mun-	.	.
=67-	=67-	=67-	=67-
!LO:TX:t=P:problem:kreska pseudotaktowa	!	!	!
1B	-di	1r	.
00r	.	1.ff	Su-
=68-	=68-	=68-	=68-
.	.	.	.
!	!	!LO:TX:t=P:problem:kreska pseudotaktowa	!
.	.	2ee\	-ſci-
.	.	1ee	-pe
=69-	=69-	=69-	=69-
.	.	2.dd\	de-
!	!	!LO:TX:t=P:problem:kreska pseudotaktowa	!
.	.	4dd\	-pre-
00r	.	2dd\	-ca-
!	!	!LO:TX:t=P:problem:kreska pseudotaktowa	!
.	.	2ccny\	-ti-
=70-	=70-	=70-	=70-
.	.	2dd\	-o-
.	.	1ee	-nem
.	.	4dd\	no-
!	!	!LO:TX:t=P:problem:kreska pseudotaktowa	!
.	.	4cc\	.
=71-	=71-	=71-	=71-
.	.	2b/	.
.	.	1cc	.
!LO:TX:t=P:problem:kreska pseudotaktowa	!	!	!
1r	.	.	.
!	!	!LO:TX:t=P:problem:kreska pseudotaktowa	!
.	.	2b/	.
=72-	=72-	=72-	=72-
1G	Qui	1cc	-ſtram
!LO:TX:t=P:problem:kreska pseudotaktowa	!	!	!
1c	se-	00r	.
=73-	=73-	=73-	=73-
2d\	-des	.	.
!LO:TX:t=P:problem:kreska pseudotaktowa	!	!	!
2B\	ad	.	.
!LO:LB:g=original	!	!	!
1.c	dex-	.	.
=74-	=74-	=74-	=74-
.	.	.	.
!LO:TX:t=P:problem:kreska pseudotaktowa	!	!	!
2A/	-te-	.	.
2d\	-ra(m)	0r	.
4G/	Pa-	.	.
!LO:TX:t=P:problem:kreska pseudotaktowa	!	!	!
4A/	.	.	.
=75-	=75-	=75-	=75-
4B\	.	.	.
4c\	.	.	.
1d	.	.	.
!	!	!LO:TX:t=P:problem:kreska pseudotaktowa	!
!	!	!LO:SIC:v:t=custos dd	!
.	.	1r	.
!LO:TX:t=P:problem:kreska pseudotaktowa	!	!	!
2c\	.	.	.
=76-	=76-	=76-	=76-
*	*	*lig	*
!	!	!LO:LB:g=original	!
2d\	-tris	1dd	mi-
1A	mi-	.	.
.	.	1.ee	.
!LO:TX:t=P:problem:kreska pseudotaktowa	!	!	!
2A/	-ſe-	.	.
*	*	*Xlig	*
=77-	=77-	=77-	=77-
2E/	-re-	.	.
!LO:TX:t=P:problem:kreska pseudotaktowa	!	!LO:TX:t=P:problem:kreska pseudotaktowa	!
2A/	-re	2dd\	-ſe-
1G	No-	2dd\	-re-
.	.	2dd\	-re
=78-	=78-	=78-	=78-
!LO:TX:t=P:problem:kreska pseudotaktowa	!	!LO:TX:t=P:problem:kreska pseudotaktowa	!
1G	-biſ	0ee	no-
1r	.	.	.
=79-	=79-	=79-	=79-
!	!	!LO:TX:t=P:problem:kreska pseudotaktowa	!
2r	.	0dd	-bis
1d	Quo-	.	.
!LO:TX:t=P:problem:kreska pseudotaktowa	!	!	!
2d\	-ni-	.	.
=80-	=80-	=80-	=80-
2d\	-a(m)	00r	.
!LO:TX:t=P:problem:kreska pseudotaktowa	!	!	!
2c\	tu	.	.
2A/	ſo-	.	.
2d\	-l(us)	.	.
=81-	=81-	=81-	=81-
2B\	Sanc-	.	.
!LO:TX:t=P:problem:kreska pseudotaktowa	!	!	!
2A/	.	.	.
!LO:TX:t=P:problem:kreska pseudotaktowa	!	!	!
1G	.	.	.
=82-	=82-	=82-	=82-
!LO:TX:t=P:problem:kreska pseudotaktowa	!	!	!
!LO:LB:g=original	!	!	!
1D	-tus,	2r	.
.	.	1dd	tu
2B\	tu	.	.
!LO:TX:t=P:problem:kreska pseudotaktowa	!	!LO:TX:t=P:problem:kreska pseudotaktowa	!
2A\	so-	2cc\	ſo-
=83-	=83-	=83-	=83-
!LO:TX:t=P:problem:kreska pseudotaktowa	!	!	!
!LO:TX:a:t=g	!	!	!
1G	-l(us)	2dd\	-lus
.	.	2.ee\	Do-
2G/	Do-	.	.
.	.	4dd\	.
!LO:TX:t=P:problem:kreska pseudotaktowa	!	!	!
2E/	.	1dd\	.
=84-	=84-	=84-	=84-
2D/	.	.	.
!LO:TX:t=P:problem:kreska pseudotaktowa	!	!LO:TX:t=P:problem:kreska pseudotaktowa	!
2A/	-mi-	2cc#X\	-mi-
!	!	!LO:TX:t=P:problem:kreska pseudotaktowa	!
2D/	-nuſ	1dd	-n(us)
!LO:TX:t=P:problem:kreska pseudotaktowa	!	!	!
2r	.	.	.
=85-	=85-	=85-	=85-
0r	.	0r	.
=86-	=86-	=86-	=86-
!LO:TX:t=P:problem:kreska pseudotaktowa	!	!	!
1r	.	1r	.
2r	.	2r	.
(1G/	Je-	1dd\	Tu
=87-	=87-	=87-	=87-
.	.	.	.
!LO:TX:t=P:problem:kreska pseudotaktowa	!	!LO:TX:t=P:problem:kreska pseudotaktowa	!
2F#X/)	.	2dd\	so-
1G	-ſu	2dd\	-lus
!	!	!LO:SIC:v:t=custos ee	!
.	.	2dd\	Al-
=88-	=88-	=88-	=88-
!	!	!LO:LB:g=original	!
2c\	Chri-	2ee\	-tiſ-
!LO:TX:t=P:problem:kreska pseudotaktowa	!	!	!
2A/	.	2ff#X\	-si-
!	!	!LO:TX:t=P:problem:kreska pseudotaktowa	!
1G	.	1gg	-m(us)
=89-	=89-	=89-	=89-
!LO:TX:t=P:problem:kreska pseudotaktowa	!	!	!
0A	.	0ffny	Je-
=90-	=90-	=90-	=90-
!	!	!LO:TX:t=P:problem:kreska pseudotaktowa	!
4c\	.	0ee	-su
4B\	.	.	.
4A\	.	.	.
!LO:TX:t=P:problem:kreska pseudotaktowa	!	!	!
4G\	.	.	.
1G	.	.	.
=91-	=91-	=91-	=91-
!LO:TX:t=P:problem:kreska pseudotaktowa	!	!	!
0d	.	0dd	Chr(i-
=92-	=92-	=92-	=92-
!	!	!LO:TX:t=P:problem:kreska pseudotaktowa	!
2.B\	.	1dd	-st)e
4A\	.	.	.
!LO:TX:t=P:problem:kreska pseudotaktowa	!	!	!
1G	-ſte	2r	.
.	.	2dd\	Cum
=93-	=93-	=93-	=93-
!LO:TX:t=P:problem:kreska pseudotaktowa	!	!	!
00r	.	1ee	San-
!	!	!LO:TX:t=P:problem:kreska pseudotaktowa	!
.	.	1ff#X	-cto
=94-	=94-	=94-	=94-
.	.	1gg	Spi-
.	.	1ee	-ri-
=95-	=95-	=95-	=95-
!LO:TX:t=P:problem:fragment pominięty	!	!LO:TX:t=P:problem:kreska pseudotaktowa	!
1ryy	.	0dd	-tu
1B	Cum	.	.
=96-	=96-	=96-	=96-
!LO:TX:t=P:problem:kreska pseudotaktowa	!	!	!
1c	San-	00r	.
1A	-cto	.	.
=97-	=97-	=97-	=97-
!LO:TX:t=P:problem:kreska pseudotaktowa	!	!	!
1G	Spi-	.	.
1c	-ri-	.	.
=98-	=98-	=98-	=98-
2B\	-tu,	2r	.
!LO:TX:t=P:problem:kreska pseudotaktowa	!	!LO:TX:t=P:problem:kreska pseudotaktowa	!
2G/	in	2dd\	in
2c\	glo-	2ee\	glo-
!LO:TX:t=P:problem:kreska pseudotaktowa	!	!LO:TX:t=P:problem:kreska pseudotaktowa	!
2A/	-ri-	2ff#X\	-ri-
=99-	=99-	=99-	=99-
2G/	-a	2gg\	-a
!	!	!LO:SIC:v:t=custos dd	!
1c	De-	1ee	De-
!LO:TX:t=P:problem:kreska pseudotaktowa	!	!LO:TX:t=P:problem:kreska pseudotaktowa	!
!	!	!LO:LB:g=original	!
2G/	-i	2dd\	-i
=100-	=100-	=100-	=100-
2A\	Pa-	2ccny\	P(a-
2B\	-triſ	2b/	-t)ris
2c\	A-	1a	a-
!LO:TX:t=P:problem:kreska pseudotaktowa	!	!	!
2d\	.	.	.
=101-	=101-	=101-	=101-
!	!	!LO:TX:t=P:problem:kreska pseudotaktowa	!
1G	-men	1g	-m(en)
00r	.	1r	.
=102-	=102-	=102-	=102-
.	.	2.cc\	De-
.	.	4b/	.
!	!	!LO:TX:t=P:problem:kreska pseudotaktowa	!
.	.	2a/	-i
.	.	2b/	Pa-
=103-	=103-	=103-	=103-
!	!	!LO:TX:t=P:problem:kreska pseudotaktowa	!
.	.	2dd\	.
.	.	2ee\	-tris
0r	.	1ffny	a-
=104-	=104-	=104-	=104-
!	!	!LO:TX:t=P:problem:kreska pseudotaktowa	!
.	.	2ee\	-men
.	.	2gg\	in
!	!	!LO:TX:t=P:problem:kreska pseudotaktowa	!
1r	.	2cc\	gl(o-
!	!	!LO:TX:t=P:problem:wymazane/dopisane 2dd	!
.	.	2dd\	-ri)-
=105-	=105-	=105-	=105-
!	!	!LO:TX:t=P:problem:kreska pseudotaktowa	!
1.c	De-	1ee	-a
.	.	.	.
.	.	0r	.
!LO:TX:t=P:problem:kreska pseudotaktowa	!	!	!
2c\	-i	.	.
=106-	=106-	=106-	=106-
2c\	Pa-	.	.
2G/	-triſ	.	.
!LO:TX:t=P:problem:kreska pseudotaktowa	!	!	!
1A	A-	1a	in
=107-	=107-	=107-	=107-
!LO:LB:g=original	!	!	!
0B	-men	2b/	glo-
!	!	!LO:TX:t=P:problem:kreska pseudotaktowa	!
.	.	2cc\	-ri-
!	!	!LO:TX:t=P:problem:kreska pseudotaktowa	!
!	!	!LO:SIC:v:t=custos gg	!
.	.	1dd	-a
=108-	=108-	=108-	=108-
!	!	!LO:LB:g=original	!
1.c	A-	2.gg\	De-
!	!	!LO:TX:t=P:problem:kreska pseudotaktowa	!
.	.	4ff\	-i
.	.	2ee\	P(a-
!	!	!LO:TX:t=P:problem:kreska pseudotaktowa	!
4B\	.	2dd\	-t)ris
4G/	.	.	.
=109-	=109-	=109-	=109-
!LO:TX:t=P:problem:kreska pseudotaktowa	!	!	!
0c	.	0cc	A-
=110-	=110-	=110-	=110-
!LO:TX:t=P:problem:kreska pseudotaktowa	!	!	!
0B;;	-men	0dd	-men
=-	=-	=-	=-
*-	*-	*-	*-
!!!system-decoration: [(s1,s2)]
!!!RDF**kern: < = below
!!!RDF**kern: > = above
!!!ENC: Krzysztof Stępień
!!!END: 2021-06-29
!!!ENC: Marta Chmielewska
!!!END: 2021-07-09
